X: 4
T: Missa Dominicalis / Sanctus
N: Derived from Ort1001d-Missa_Dominicalis-Sanctus.krn
C: Marbrianus de Orto
%%abc-version 2.0
%%abcx-abcm2ps-target-version 5.9.1 (29 Sep 2008)
%%abc-creator hum2abc beta
%%abcx-conversion-date 2019/02/17 07:28:36
%%abc-edited-by Jesse Rodin
%%abc-edited-by Jesse Rodin 8/12/2013
%%abcx-initial-encoding-date 2013/08/12/
%%humdrum-veritas 3728780365
%%humdrum-veritas-data 2536229144
%%linebreak <none>
%%barnumbers 0
L: 1/4
M: 3/1
Q: 1/2=120
%%staves [1 2 3 4]
V: 1 clef=treble
V: 2 clef=treble-8
V: 3 clef=treble-8
V: 4 clef=bass
K: F
[V:1] z12 | 
[V:2] z4z4z2c2 | 
[V:3] F4G3FG2A2 | 
[V:4] z12 | 
[V:1] z12 | 
[V:2] d3cd2e2f3e | 
[V:3] B3AB2c2A4- | 
[V:4] z4z2C,2D,3C, | 
[V:1] z2F2G3AB3A | 
[V:2] c2d2B2G2g3f | 
[V:3] A4G4z4 | 
[V:4] F,2D,2_E,4E,3F, | 
[V:1] B2c3BAGA4 | 
[V:2] d2a4g4^f2 | 
[V:3] z4c4d4 | 
[V:4] G,2F,4E,2D,4 | 
[V:1] G4c4z2d2 | 
[V:2] g4e2f2d4 | 
[V:3] G4A4B4 | 
[V:4] z2G,4F,2G,4 | 
[V:1] c2e3dd4c2 | 
[V:2] e2g3fd2e4 | 
[V:3] c6B2A4 | 
[V:4] C,4z4z4 | 
[V:1] d3cBAG2F2G2 | 
[V:2] d2B2GABGd4- | 
[V:3] B12- | 
[V:4] G,6E,2D,2G,2- | 
[V:1] D2F3GA3Bc2 | 
[V:2] d4c4f2ec | 
[V:3] B4A8 | 
[V:4] G,2D,2F,4z4 | 
[V:1] B2A3GG4^F2 | 
[V:2] d2f3ec2d4 | 
[V:3] G2c3BG2A4 | 
[V:4] G,2F,4E,2D,4 | 
[V:1] G4z4c4 | 
[V:2] z12 | 
[V:3] G4A2G4^F2 | 
[V:4] D2_ED2CB,2A,4 | 
[V:1] B2d2_e2d3cB2 | 
[V:2] d4g8 | 
[V:3] G4z4z4 | 
[V:4] G,2B,2C2B,3A,G,2 | 
[V:1] A2c2d2c3BA2 | 
[V:2] a4f8 | 
[V:3] z12 | 
[V:4] F,4z2F,4F,2 | 
[V:1] G2B4A2B2AG | 
[V:2] z2g4f2d4- | 
[V:3] z12 | 
[V:4] _E,4z2F,2G,4 | 
[V:1] F3GA2G3FE2 | 
[V:2] d4c8 | 
[V:3] z12 | 
[V:4] D,3E,F,2E,2C,4 | 
[V:1] D2E3DD4^C2 | 
[V:2] B2G2B2A4G2 | 
[V:3] z12 | 
[V:4] G,4D,2F,2E,4 | 
[V:1] D2F3DG4^F2 | 
[V:2] A2BAd2B2A4 | 
[V:3] z4z4c4 | 
[V:4] D,4z4z4 | 
[V:1] G2B4A2G2c2- | 
[V:2] G4d2f2g2a2- | 
[V:3] d8e4 | 
[V:4] G,6F,2C2A,2- | 
[V:1] c2d4c2f2ed | 
[V:2] a2f2b2a4g2 | 
[V:3] f4e4d4 | 
[V:4] A,2B,2G,2A,2B,4 | 
[V:1] c4A3Bc2d2 | 
[V:2] a4z4z4 | 
[V:3] e4f8 | 
[V:4] A,4D3CA,2B,2 | 
[V:1] edcBA2d4^c2 | 
[V:2] z12 | 
[V:3] g4f2g2e4 | 
[V:4] z2G,2D2G,2A,4 | 
[V:1] d4z4z4 | 
[V:2] d3cA2B2c4 | 
[V:3] f8e4 | 
[V:4] D,8A,4 | 
[V:1] z12 | 
[V:2] G4c3de2f2- | 
[V:3] d4e3dc2d2- | 
[V:4] B,4A,4A,2D,2- | 
[V:1] z12 | 
[V:2] fga2d2g4^f2 | 
[V:3] dcA2B2d4c2 | 
[V:4] D,E,F,2G,2B,2A,4 | 
[V:1] B4d3cA2B2 | 
[V:2] g4z2f4g2 | 
[V:3] d8z4 | 
[V:4] G,4B,4z2G,2 | 
[V:1] c4G2B3AF2 | 
[V:2] c2_e4d2B2d2- | 
[V:3] z12 | 
[V:4] _A,3G,_E,2G,4D,2- | 
[V:1] A2G3AB2A2c2 | 
[V:2] d2B2c2d4_e2 | 
[V:3] z12 | 
[V:4] D,2_E,2C,2G,2F,=E,C,2 | 
[V:1] B2d3cA3GE2 | 
[V:2] d4B2c2d2c2 | 
[V:3] z12 | 
[V:4] G,4G,2F,3G,A,2 | 
[V:1] D2B3AG4^F2 | 
[V:2] d4G4A4 | 
[V:3] z12 | 
[V:4] B,2G,3F,E,2D,4 | 
[V:1] G12 ||  
[V:2] G12 ||  
[V:3] z12 ||  
[V:4] G,12 ||  
[V:1]  [K:F] [K:clef=treble][M:3/1]z12 | 
[V:2]  [K:F] [K:clef=treble-8][M:3/1]z4B4c2d2- | 
[V:3]  [K:F] [K:clef=treble-8][M:3/1]z12 | 
[V:4]  [K:F] [K:clef=bass][M:3/1]F,4G,4A,2B,2- | 
[V:1] z12 | 
[V:2] dcB2A4B2AG | 
[V:3] z12 | 
[V:4] B,A,G,3E,F,2G,4 | 
[V:1] z12 | 
[V:2] F4B2A2B2d2- | 
[V:3] z12 | 
[V:4] A,2D,4D,2G,4 | 
[V:1] z12 | 
[V:2] d2B2c2BAG2d2- | 
[V:3] z12 | 
[V:4] F,2G,2A,4B,4 | 
[V:1] z12 | 
[V:2] d2c2B2d3cA2 | 
[V:3] z12 | 
[V:4] A,4G,4^F,4 | 
[V:1] z12 | 
[V:2] G2d4B2A4 | 
[V:3] z12 | 
[V:4] z2G,2F,2G,3E,F,2 | 
[V:1] z12 | 
[V:2] G2g2f2g3e^f2 | 
[V:3] z12 | 
[V:4] G,4B,4A,4 | 
[V:1] z12 | 
[V:2] g3fd2c4g2 | 
[V:3] z12 | 
[V:4] z2B,4A,2C3B, | 
[V:1] z12 | 
[V:2] f2e3dd4^c2 | 
[V:3] z12 | 
[V:4] A,4D,4E,4 | 
[V:1] F4G2A2B3A | 
[V:2] d4G2d4G2 | 
[V:3] z12 | 
[V:4] D,4E,2D,2G,3F, | 
[V:1] F2A4G4^F2 | 
[V:2] d2cBA3GA4 | 
[V:3] z12 | 
[V:4] D,12 | 
[V:1] G2B2c2d3cA2- | 
[V:2] G4z4z4 | 
[V:3] z12 | 
[V:4] z2G,2A,2G,2B,2C2 | 
[V:1] A2B2G2A3GE2 | 
[V:2] z2d2e2d2f2g2 | 
[V:3] z12 | 
[V:4] D4z4z4 | 
[V:1] F2D2G2B2A4 | 
[V:2] a3g/f/edg4^f2 | 
[V:3] z12 | 
[V:4] z12 | 
[V:1] G2B3AF2G2A2 | 
[V:2] g4G2B3AF2 | 
[V:3] z12 | 
[V:4] z12 | 
[V:1] D2F2G2A2B2A2- | 
[V:2] G2A2B2A2d3c | 
[V:3] z12 | 
[V:4] z4z2F,2G,2F,2- | 
[V:1] AGF2E4D2F2- | 
[V:2] A2d4^c2d4 | 
[V:3] z12 | 
[V:4] F,2D,2G,2A,2B,4 | 
[V:1] F2E2D2G4F2 | 
[V:2] z12 | 
[V:3] z12 | 
[V:4] A,4B,2C2A,4 | 
[V:1] E2A4G2F2B2- | 
[V:2] z4d3ef2g2- | 
[V:3] z12 | 
[V:4] C4B,4A,2G,2 | 
[V:1] B2A2G2c4B2 | 
[V:2] g2e4c2d3e | 
[V:3] z12 | 
[V:4] C6A,2G,4 | 
[V:1] A2d4c2B2c2- | 
[V:2] f8z2f2 | 
[V:3] z12 | 
[V:4] F,2B,4A,2G,2F,2 | 
[V:1] cBAGF4G2A2- | 
[V:2] e2c2d2B3AF2 | 
[V:3] z12 | 
[V:4] A,4D,4z4 | 
[V:1] ABc2d3cA2c2 | 
[V:2] c2A2G2d3cA2 | 
[V:3] z12 | 
[V:4] F,4B,2G,2F,4 | 
[V:1] B2A3GG4^F2 | 
[V:2] d4G4A4 | 
[V:3] z12 | 
[V:4] G,2D,2E,4D,4 | 
[V:1] G12 ||  
[V:2] G12 ||  
[V:3] z12 ||  
[V:4] G,12 ||  
[V:1]  [K:F] [K:clef=treble][M:2/1]z8 | 
[V:2]  [K:F] [K:clef=treble-8][M:2/1]z8 | 
[V:3]  [K:F] [K:clef=treble-8][M:2/1]z8 | 
[V:4]  [K:F] [K:clef=bass][M:2/1]G,4B,4 | 
[V:1] G4B4 | 
[V:2] z4G4 | 
[V:3] z8 | 
[V:4] C4D4 | 
[V:1] c4d4 | 
[V:2] A4B4 | 
[V:3] z8 | 
[V:4] C3B,G,4 | 
[V:1] c3de2f2- | 
[V:2] cdefg2a2- | 
[V:3] z8 | 
[V:4] A,2G,F,E,2D,2- | 
[V:1] f2d4^c2 | 
[V:2] a2f2e4 | 
[V:3] z8 | 
[V:4] D,2D,2A,4 | 
[V:1] d8 | 
[V:2] d4f4- | 
[V:3] z8 | 
[V:4] B,8 | 
[V:1] c4B4 | 
[V:2] f4d3e | 
[V:3] z8 | 
[V:4] F,4G,4 | 
[V:1] A2G2A4 | 
[V:2] f2g4^f2 | 
[V:3] z8 | 
[V:4] D,2E,2D,4 | 
[V:1] G8 | 
[V:2] g8 | 
[V:3] G4B4 | 
[V:4] z4G,4 | 
[V:1] A8 | 
[V:2] z8 | 
[V:3] c4d4- | 
[V:4] F,4D,4 | 
[V:1] G8 | 
[V:2] z4G4 | 
[V:3] d2^c=B^c4 | 
[V:4] E,8 | 
[V:1] F4G2A2- | 
[V:2] A2B4f2- | 
[V:3] d4d4 | 
[V:4] D,4G,2F,2- | 
[V:1] A2GFE4 | 
[V:2] f2edc4 | 
[V:3] c6BA | 
[V:4] F,2G,2A,4 | 
[V:1] z2D4G2- | 
[V:2] d4B4 | 
[V:3] G8 | 
[V:4] B,3A,G,F,E,2 | 
[V:1] G2F4E2 | 
[V:2] d4A2c2 | 
[V:3] A8- | 
[V:4] D,6C,2 | 
[V:1] F2A4G2- | 
[V:2] F4z4 | 
[V:3] A4B4- | 
[V:4] D,2F,2D,2_E,2- | 
[V:1] G2F2G2B2- | 
[V:2] B2d2e2f2- | 
[V:3] B4c2d2 | 
[V:4] E,2D,2C,2B,,2 | 
[V:1] B2A2B2d2- | 
[V:2] f2f2g4 | 
[V:3] c4G4 | 
[V:4] F,4z4 | 
[V:1] def3edc | 
[V:2] f2d2c2f2 | 
[V:3] B4A4 | 
[V:4] z4F,4 | 
[V:1] B2c4B2- | 
[V:2] d2f4e2 | 
[V:3] G2F2G4 | 
[V:4] G,2A,2B,4 | 
[V:1] B2A2B4 | 
[V:2] f4d4 | 
[V:3] F4G4 | 
[V:4] C4B,4 | 
[V:1] z8 | 
[V:2] z8 | 
[V:3] G4F4 | 
[V:4] _E2D3CA,2 | 
[V:1] z8 | 
[V:2] d3efga2- | 
[V:3] G4A4 | 
[V:4] B,3A,F,4 | 
[V:1] z8 | 
[V:2] a2f2e2g2- | 
[V:3] F4c4- | 
[V:4] C4C,3D, | 
[V:1] z8 | 
[V:2] gfd4G2- | 
[V:3] c2B2G3A | 
[V:4] E,F,G,4E,2- | 
[V:1] z8 | 
[V:2] G2g4^f2 | 
[V:3] B2c2A4 | 
[V:4] E,D,C,2D,4 | 
[V:1] B4B4 | 
[V:2] g8 | 
[V:3] G8 | 
[V:4] D4_E2D2- | 
[V:1] A2G3^FF2 | 
[V:2] z4c4 | 
[V:3] z8 | 
[V:4] D2CB,A,4 | 
[V:1] G4B4 | 
[V:2] B6AG | 
[V:3] d8 | 
[V:4] G,8 | 
[V:1] A3Bc2d2- | 
[V:2] F3GA2B2- | 
[V:3] f8- | 
[V:4] D,4z2B,,2- | 
[V:1] d2cBA4 | 
[V:2] B2G2z2d2- | 
[V:3] f8 | 
[V:4] B,,2C,2D,4 | 
[V:1] G4B4 | 
[V:2] d2B3cde | 
[V:3] g8 | 
[V:4] E,4G,4 | 
[V:1] c4d4 | 
[V:2] f4d4 | 
[V:3] a4g4- | 
[V:4] F,4B,2G,2 | 
[V:1] _e4d4- | 
[V:2] z8 | 
[V:3] g4f4 | 
[V:4] C4z2B,2 | 
[V:1] d2c2c4 | 
[V:2] g8- | 
[V:3] e8 | 
[V:4] C8 | 
[V:1] =B8 | 
[V:2] g8 | 
[V:3] d8 | 
[V:4] G,8 | 
[V:1] c3Bc2d2- | 
[V:2] g3fg2a2 | 
[V:3] e6f2- | 
[V:4] z8 | 
[V:1] dcBAG3A | 
[V:2] d4z2g2- | 
[V:3] f4e4 | 
[V:4] z4C4 | 
[V:1] B2c4=B2 | 
[V:2] g2f2g4 | 
[V:3] d2c2d4 | 
[V:4] G,2A,2G,4 | 
[V:1] c4z4 | 
[V:2] z4G4 | 
[V:3] c8 | 
[V:4] C,8 | 
[V:1] [M:2/1](3:2:1F12 | 
[V:2] [M:2/1](3:2:2B8B4 | 
[V:3] (3:2:2d8d4 | 
[V:4] [M:2/1](3:2:2B,,8B,,4 | 
[V:1] (3:2:4G6^F EF4 | 
[V:2] (3:2:2G4A8 | 
[V:3] (3:2:2c4d8 | 
[V:4] (3:2:2_E,4D,8 | 
[V:1] (3:2:2G8B4 | 
[V:2] (3:2:4G4B6A G | 
[V:3] (3:2:2_e8d4- | 
[V:4] (3:2:1G,12 | 
[V:1] (3:2:2A8F4 | 
[V:2] (3:2:2F4A8 | 
[V:3] (3:2:2d4d8 | 
[V:4] (3:2:1D,12 | 
[V:1] (3:2:2G4E8 | 
[V:2] (3:2:2G4A8 | 
[V:3] (3:2:2B4c8 | 
[V:4] (3:2:1z12 | 
[V:1] (3:2:5D2E2F2G2A4 | 
[V:2] (3:2:4z4d2e2f4 | 
[V:3] d8- | 
[V:4] (3:2:1D,12 | 
[V:1] (3:2:2B4A8 | 
[V:2] (3:2:2g8^f4 | 
[V:3] d8 | 
[V:4] (3:2:2G,4D,8 | 
[V:1] (3:2:2G8c4- | 
[V:2] (3:2:2g8a4- | 
[V:3] e8 | 
[V:4] (3:2:2G,8F,4- | 
[V:1] (3c4d6c2 | 
[V:2] (3a4f4d4 | 
[V:3] f8- | 
[V:4] (3F,4B,6C2 | 
[V:1] (3:2:2A8c4- | 
[V:2] (3:2:2f4a8 | 
[V:3] f8 | 
[V:4] (3:2:2D8A,4- | 
[V:1] (3c4G4c4 | 
[V:2] (3a4e4g4- | 
[V:3] e8 | 
[V:4] (3A,4C4C,4 | 
[V:1] (3B6A2G4 | 
[V:2] (3g4g4d4- | 
[V:3] d8- | 
[V:4] (3:2:2G,8G,4 | 
[V:1] (3F4A6G2 | 
[V:2] (3d2e2f2(3e2d2c2 | 
[V:3] d8- | 
[V:4] (3D,6E,2F,4 | 
[V:1] (3:2:2G8^F4 | 
[V:2] (3:2:2B4A8 | 
[V:3] d8- | 
[V:4] (3:2:2G,4D,8 | 
[V:1] (3:2:1G12 ||  
[V:2] (3:2:1G12 ||  
[V:3] d8 ||  
[V:4] (3:2:1G,12 ||  
[V:1]  [K:F] [K:clef=treble][M:2/1]z8 | 
[V:2]  [K:F] [K:clef=treble-8][M:2/1]A4d4- | 
[V:3]  [K:F] [K:clef=treble-8][M:2/1]F8 | 
[V:4]  [K:F] [K:clef=bass][M:2/1]z8 | 
[V:1] z8 | 
[V:2] d2c2B4 | 
[V:3] G8 | 
[V:4] z8 | 
[V:1] z8 | 
[V:2] cBAG^F4 | 
[V:3] A8 | 
[V:4] z8 | 
[V:1] B4d4- | 
[V:2] G4z4 | 
[V:3] G8- | 
[V:4] z8 | 
[V:1] d2c2B4 | 
[V:2] z8 | 
[V:3] G8 | 
[V:4] z8 | 
[V:1] cBAG^F4 | 
[V:2] z4c3d | 
[V:3] A8 | 
[V:4] z8 | 
[V:1] G4z4 | 
[V:2] e2d4g2- | 
[V:3] G8- | 
[V:4] z8 | 
[V:1] z8 | 
[V:2] gfede4 | 
[V:3] G8 | 
[V:4] C,8 | 
[V:1] z8 | 
[V:2] f4e2d2- | 
[V:3] F8 | 
[V:4] D,8 | 
[V:1] z8 | 
[V:2] d2cBcBAG | 
[V:3] z8 | 
[V:4] E,8 | 
[V:1] z8 | 
[V:2] F3GA2B2- | 
[V:3] z8 | 
[V:4] D,8 | 
[V:1] z8 | 
[V:2] B2AGF2A2- | 
[V:3] z8 | 
[V:4] E,4D,4 | 
[V:1] z8 | 
[V:2] A2G3ABc | 
[V:3] z8 | 
[V:4] C,4E,4 | 
[V:1] z8 | 
[V:2] B2d3ce2- | 
[V:3] z8 | 
[V:4] G,4F,2G,2- | 
[V:1] z8 | 
[V:2] e2d4^c2 | 
[V:3] z8 | 
[V:4] G,F,D,2E,4 | 
[V:1] F8 | 
[V:2] d4z4 | 
[V:3] z8 | 
[V:4] D,E,F,G,A,2B,2- | 
[V:1] G4A4 | 
[V:2] z4z2d2- | 
[V:3] z8 | 
[V:4] B,2G,4F,2 | 
[V:1] G4A4 | 
[V:2] d2c2d2f2- | 
[V:3] z8 | 
[V:4] G,2E,2D,4 | 
[V:1] G4F4 | 
[V:2] f2e2f2d2- | 
[V:3] z8 | 
[V:4] z8 | 
[V:1] z2B4A2 | 
[V:2] d2B2c2BA | 
[V:3] z8 | 
[V:4] z8 | 
[V:1] B2G4F2 | 
[V:2] G2B2A4 | 
[V:3] z8 | 
[V:4] z8 | 
[V:1] G2FED2F2 | 
[V:2] z2GABcd2- | 
[V:3] z8 | 
[V:4] z8 | 
[V:1] E4DEFG | 
[V:2] d2c2d3e | 
[V:3] z8 | 
[V:4] z8 | 
[V:1] A2B3cd2- | 
[V:2] f2g3fd2 | 
[V:3] z8 | 
[V:4] z8 | 
[V:1] d2^c2d4 | 
[V:2] e4z2d2- | 
[V:3] z8 | 
[V:4] z8 | 
[V:1] z4d4 | 
[V:2] dcA2B2G2 | 
[V:3] z8 | 
[V:4] z8 | 
[V:1] c2A2B4 | 
[V:2] A4z2d2- | 
[V:3] z8 | 
[V:4] z8 | 
[V:1] A4d4 | 
[V:2] dcd2B2AG | 
[V:3] z8 | 
[V:4] z8 | 
[V:1] c2d4B2- | 
[V:2] A2B2G4 | 
[V:3] z8 | 
[V:4] z8 | 
[V:1] B2G2A2B2 | 
[V:2] d2e2f2g2- | 
[V:3] z8 | 
[V:4] z8 | 
[V:1] G2c3BAG | 
[V:2] g2a3gg2- | 
[V:3] z8 | 
[V:4] z8 | 
[V:1] A4B2c2- | 
[V:2] g2f2d2e2- | 
[V:3] z8 | 
[V:4] z8 | 
[V:1] cBAGF4 | 
[V:2] edcBA2B2- | 
[V:3] z8 | 
[V:4] z8 | 
[V:1] D2F3GA2- | 
[V:2] B2A2B2c2 | 
[V:3] z8 | 
[V:4] z8 | 
[V:1] A2GFE2A2- | 
[V:2] A2d4c2 | 
[V:3] z8 | 
[V:4] z8 | 
[V:1] A2G3FD2- | 
[V:2] d2e2c2f2- | 
[V:3] z8 | 
[V:4] z8 | 
[V:1] D2F2E4 | 
[V:2] f2d4c2 | 
[V:3] z8 | 
[V:4] z8 | 
[V:1] D2G4F2 | 
[V:2] d2B2A4 | 
[V:3] z8 | 
[V:4] z8 | 
[V:1] G2A2F2B2- | 
[V:2] z2d3cBA | 
[V:3] z8 | 
[V:4] z8 | 
[V:1] BGG4^F2 | 
[V:2] G2B2A4 | 
[V:3] z8 | 
[V:4] z8 | 
[V:1] G8 | 
[V:2] G8 | 
[V:3] z8 | 
[V:4] z8 | 
[V:1] z8 | 
[V:2] z8 | 
[V:3] A8- | 
[V:4] D,6C,2 | 
[V:1] z8 | 
[V:2] z8 | 
[V:3] A8 | 
[V:4] D,2F,3E,D,2 | 
[V:1] z8 | 
[V:2] z8 | 
[V:3] c8- | 
[V:4] C,2F,4E,2 | 
[V:1] z8 | 
[V:2] z8 | 
[V:3] c8 | 
[V:4] F,2A,3G,F,2 | 
[V:1] z8 | 
[V:2] z8 | 
[V:3] c4B4 | 
[V:4] E,2A,4G,2 | 
[V:1] z8 | 
[V:2] z8 | 
[V:3] A4G4 | 
[V:4] A,2C2B,2A,G, | 
[V:1] z4z2G2 | 
[V:2] z8 | 
[V:3] A4B4 | 
[V:4] F,2D,4G,2- | 
[V:1] A2c2B2G2 | 
[V:2] z8 | 
[V:3] A4G4 | 
[V:4] G,2F,2G,4 | 
[V:1] A4z2G2- | 
[V:2] z4d4 | 
[V:3] F4G4 | 
[V:4] D,4z4 | 
[V:1] G2B2A2B2 | 
[V:2] e2g2f2d2 | 
[V:3] z8 | 
[V:4] z8 | 
[V:1] c4d2cB | 
[V:2] _e2dcB2d2- | 
[V:3] z8 | 
[V:4] z8 | 
[V:1] A2B3Ac2- | 
[V:2] dcd2G2A2- | 
[V:3] z8 | 
[V:4] z8 | 
[V:1] cBAGF2G2 | 
[V:2] ABc2d2c2- | 
[V:3] z8 | 
[V:4] z8 | 
[V:1] A2B3AG2 | 
[V:2] cBG2z2c2 | 
[V:3] z8 | 
[V:4] z8 | 
[V:1] F2G2E2D2- | 
[V:2] d2G2c2d2 | 
[V:3] z8 | 
[V:4] z8 | 
[V:1] D2d4c2 | 
[V:2] f4_e4 | 
[V:3] z8 | 
[V:4] z8 | 
[V:1] B2c2A2B2- | 
[V:2] d2c2d4 | 
[V:3] z8 | 
[V:4] G,2A,2F,2G,2- | 
[V:1] B2G4^F2 | 
[V:2] B2c2A4 | 
[V:3] z8 | 
[V:4] G,2C,2D,4 | 
[V:1] G8 ||  
[V:2] G8 ||  
[V:3] z8 ||  
[V:4] G,8 ||  



